X:43
T:Irish Washerwoman, The
C:Traditional
R:jig
K:G
M:6/8
L:1/8
|: BGG DGG| BGB dcB| cAA EAA| cAc edc|
! BGG DGG| BGB dcB| cBc Adc| BGG G3:| ! |:
BGG DGG| BGB BAG| AFF DFF| AFA AGF|
! EGG DGG| CGG B,GG| cBc Adc| BGG G3:|
%%footer JamBuddy 2025 - No rights reserved, public domain

